packages/icons/general/WalletNav.svg

<svg xmlns="http://www.w3.org/2000/svg" width="24" height="24" viewBox="0 0 24 24">
    <g>
        <path fill="currentColor" fill-rule="evenodd" d="M17.7691 9.87305H21.2536C21.6659 9.87305 22.0002 10.199 22.0002 10.601V13.1316C21.9954 13.5317 21.6639 13.8549 21.2536 13.8596H17.8491C16.855 13.8726 15.9857 13.209 15.7602 12.265C15.6473 11.6789 15.8058 11.0742 16.1933 10.6129C16.5808 10.1515 17.1576 9.88071 17.7691 9.87305ZM17.9207 12.5336H18.2496C18.6718 12.5336 19.014 12.1999 19.014 11.7883C19.014 11.3767 18.6718 11.043 18.2496 11.043H17.9207C17.7188 11.0407 17.5243 11.1173 17.3807 11.2557C17.2371 11.3941 17.1562 11.5828 17.1562 11.7797C17.1562 12.1927 17.4971 12.5289 17.9207 12.5336Z" clip-rule="evenodd"/>
        <path fill="currentColor" fill-rule="evenodd" d="M22 8.3818H17.7689V8.41647C15.8052 8.41647 14.2133 9.96849 14.2133 11.883C14.2133 13.7975 15.8052 15.3495 17.7689 15.3495H22V15.6615C22 19.0154 19.9644 21 16.5156 21H7.48444C4.03556 21 2 19.0154 2 15.6615V8.33847C2 4.98459 4.03556 3 7.48444 3H16.5156C19.9644 3 22 4.98459 22 8.3818ZM6.73808 8.38124H12.3825C12.8047 8.38124 13.147 8.04755 13.147 7.63593C13.147 7.22431 12.8047 6.89062 12.3825 6.89062H6.73808C6.31933 6.8906 5.9785 7.21903 5.97363 7.62726C5.9736 8.04031 6.31445 8.37649 6.73808 8.38124Z" clip-rule="evenodd"/>
    </g>
</svg>

<svg xmlns="http://www.w3.org/2000/svg" viewBox="0 0 24 24">
    <g fill="currentColor" fill-rule="evenodd" clip-rule="evenodd">
        <path d="M17.77 9.873h3.484c.412 0 .746.326.746.728v2.53a.746.746 0 0 1-.746.729h-3.405c-.994.013-1.863-.651-2.089-1.595a1.982 1.982 0 0 1 .433-1.652 2.092 2.092 0 0 1 1.576-.74Zm.15 2.66h.33a.755.755 0 0 0 .764-.745.755.755 0 0 0-.764-.745h-.33a.766.766 0 0 0-.54.213.728.728 0 0 0-.224.524c0 .413.341.749.765.754Z"/>
        <path d="M22 8.382h-4.231v.034c-1.964 0-3.556 1.552-3.556 3.467s1.592 3.467 3.556 3.467H22v.312C22 19.015 19.964 21 16.516 21H7.484C4.036 21 2 19.015 2 15.662V8.338C2 4.985 4.036 3 7.484 3h9.032C19.964 3 22 4.985 22 8.382Zm-15.262 0h5.644a.755.755 0 0 0 .765-.746.755.755 0 0 0-.764-.745H6.738a.755.755 0 0 0-.764.736c0 .413.34.75.764.754Z"/>
    </g>
</svg>
